svg/fluentui-system-icons/ic_fluent_list_rtl_16_filled.svg

<svg width="16" height="16" viewBox="0 0 16 16" fill="none" xmlns="http://www.w3.org/2000/svg">
<path d="M5 3.75C5 3.33579 5.33579 3 5.75 3H13.25C13.6642 3 14 3.33579 14 3.75C14 4.16421 13.6642 4.5 13.25 4.5H5.75C5.33579 4.5 5 4.16421 5 3.75ZM6 11.75C6 11.3358 6.33579 11 6.75 11H13.25C13.6642 11 14 11.3358 14 11.75C14 12.1642 13.6642 12.5 13.25 12.5H6.75C6.33579 12.5 6 12.1642 6 11.75ZM2.75 7C2.33579 7 2 7.33579 2 7.75C2 8.16421 2.33579 8.5 2.75 8.5H13.25C13.6642 8.5 14 8.16421 14 7.75C14 7.33579 13.6642 7 13.25 7H2.75Z" fill="#212121"/>
</svg>

<svg xmlns="http://www.w3.org/2000/svg" width="16" height="16"><path d="M5 3.75A.75.75 0 0 1 5.75 3h7.5a.75.75 0 0 1 0 1.5h-7.5A.75.75 0 0 1 5 3.75Zm1 8a.75.75 0 0 1 .75-.75h6.5a.75.75 0 0 1 0 1.5h-6.5a.75.75 0 0 1-.75-.75ZM2.75 7a.75.75 0 0 0 0 1.5h10.5a.75.75 0 0 0 0-1.5H2.75Z"/></svg>
